X: 07075
T: MARY CAY'S JIG
C: Bob McQuillen 17 June 89
B: Bob's Note Book 7 #75
R: jig
Z: 2018 John Chambers <jc:trillian.mit.edu>
N: In the NEFFA 2019 Bob McQuillen Slow Jam set.
M: 6/8
L: 1/8
K: A
|: EFA FAf | ecA F2A | EFA FAc | ecA BAF  |\
|  EFA FAf | ecA F2A | EFA BAc | ecA B2A :|
|: Ace ece | faf f2e | cee Bee | cBA BcB  |\
|  Ace ece | faf f2e | cee Bee | aec B2A :|
%%begintext align
%% You haven't lived until
%% you have met Mary Cay Brass - She's a wonderful
%% piano player, and she also plays a grand old Hohner accordion
%% with such a beautiful tone. She's from Brattleboro,
%% VT., so I'm lucky, I get to hear her pretty often. I hope you
%% like your jig, Mary Cay!
%%endtext

%%sep 1 1 500

%%sep 1 1 500

